img/manaSymbols/neon/neon2.svg

<?xml version="1.0" encoding="UTF-8" standalone="no"?>
<!DOCTYPE svg PUBLIC "-//W3C//DTD SVG 1.1//EN" "http://www.w3.org/Graphics/SVG/1.1/DTD/svg11.dtd">
<svg width="714" height="714" viewBox="0 0 714 714" version="1.1" xmlns="http://www.w3.org/2000/svg" xmlns:xlink="http://www.w3.org/1999/xlink" xml:space="preserve" xmlns:serif="http://www.serif.com/" style="fill-rule:evenodd;clip-rule:evenodd;stroke-linejoin:round;stroke-miterlimit:2;">
    <g transform="matrix(1,0,0,1,57,57)">
        <circle cx="300" cy="300" r="300"/>
    </g>
    <g transform="matrix(1,0,0,1,57,57)">
        <path d="M300,-57C102.966,-57 -57,102.966 -57,300C-57,497.034 102.966,657 300,657C497.034,657 657,497.034 657,300C657,102.966 497.034,-57 300,-57ZM300,0C465.575,0 600,134.425 600,300C600,465.575 465.575,600 300,600C134.425,600 0,465.575 0,300C0,134.425 134.425,0 300,0Z" style="fill:white;"/>
    </g>
    <g transform="matrix(1,0,0,1,57,57)">
        <path d="M242,454L360,454C407,454 421,451 437,399L477,398L441,522L156,522L155,488C369,279 373,248 375,217C380,149 331,127 305,127C279,127 236,144 194,230L157,214C213,57 307,64 337,65C411,67 459,137 457,196C455,276 420,288 242,454Z" style="fill:white;fill-rule:nonzero;"/>
    </g>
</svg>

﻿<?xml version="1.0" encoding="utf-8"?>
<svg width="714" height="714" viewBox="0 0 714 714" version="1.1" xmlns="http://www.w3.org/2000/svg" xml:space="preserve" style="fill-rule: evenodd; clip-rule: evenodd; stroke-linejoin: round; stroke-miterlimit: 2;" preserveAspectRatio="xMidYMid meet" zoomAndPan="magnify" contentScriptType="application/ecmascript" contentStyleType="text/css">
  <circle cx="300" cy="300" r="300" transform="matrix(1,0,0,1,57,57)" />
  <path d="M300-57C102.966-57-57 102.966-57 300s159.966 357 357 357 357-159.966 357-357S497.034-57 300-57zm0 57c165.575 0 300 134.425 300 300S465.575 600 300 600 0 465.575 0 300 134.425 0 300 0z" style="fill: white;" transform="matrix(1,0,0,1,57,57)" />
  <path d="M242 454h118c47 0 61-3 77-55l40-1-36 124H156l-1-34c214-209 218-240 220-271 5-68-44-90-70-90s-69 17-111 103l-37-16C213 57 307 64 337 65c74 2 122 72 120 131-2 80-37 92-215 258z" style="fill: white; fill-rule: nonzero;" transform="matrix(1,0,0,1,57,57)" />
</svg>
